static/img/kubeedge-200.svg

<?xml version="1.0" encoding="UTF-8"?>
<svg width="200px" height="200px" viewBox="0 0 200 200" version="1.1" xmlns="http://www.w3.org/2000/svg" xmlns:xlink="http://www.w3.org/1999/xlink">
    <!-- Generator: Sketch 51.2 (57519) - http://www.bohemiancoding.com/sketch -->
    <title>KubeEdge_logo</title>
    <desc>Created with Sketch.</desc>
    <defs></defs>
    <g id="Page-1" stroke="none" stroke-width="1" fill="none" fill-rule="evenodd">
        <g id="Artboard-2" transform="translate(-1245.000000, -903.000000)">
            <g id="Group-8-Copy-7" transform="translate(1245.000000, 903.000000)">
                <g id="Group-5-Copy" transform="translate(33.152838, 0.000000)" fill-rule="nonzero">
                    <path d="M72.3063941,2.18141082 L117.599553,23.9934466 C120.462066,25.37196 122.541072,27.9789517 123.248054,31.0764431 L134.434541,80.0876426 C135.141523,83.185134 134.399534,86.4359995 132.418614,88.9199947 L101.074775,128.223925 C99.0938554,130.70792 96.089604,132.154692 92.9124548,132.154692 L42.6408409,132.154692 C39.4636918,132.154692 36.4594403,130.70792 34.4785202,128.223925 L3.13468166,88.9199947 C1.15376155,86.4359995 0.411772731,83.185134 1.11875493,80.0876426 L12.3052414,31.0764431 C13.0122236,27.9789517 15.0912301,25.37196 17.9537426,23.9934466 L63.2469016,2.18141082 C66.1094141,0.802897458 69.4438816,0.802897458 72.3063941,2.18141082 Z" id="Polygon-2" fill="#1C77C8"></path>
                    <g id="Group-4" transform="translate(26.069869, 31.283843)">
                        <path d="M73.7220788,38.2213654 C73.7220788,44.2577457 68.5302066,49.2298292 62.1097249,49.2298292 C62.0727048,49.2298292 62.0246377,49.227438 61.8958995,49.2185776 C61.7716921,49.2099083 61.6933688,49.2049435 61.6005322,49.200788 C61.4731028,49.1957562 61.4731028,49.1957562 61.3250218,49.1943476 L17.9473668,49.1943476 C11.3694616,48.8172141 6.22551948,43.9101059 6.22551948,37.8754196 C6.22551948,33.8460361 8.44652202,30.1822957 12.0355266,28.1390092 L13.9603561,27.0431682 L13.2994608,24.9291547 C13.0957981,24.2776964 12.9958645,23.6223112 12.9958645,22.9110435 C12.9958645,19.1466512 16.2064991,16.0628005 20.2649782,16.0628005 C21.8893582,16.0628005 23.475998,16.595095 24.7710911,17.5444205 L27.4002519,19.4716405 L28.8565337,16.5551517 C31.9813835,10.2970299 38.5560394,6.22551948 45.959441,6.22551948 C56.4622886,6.22551948 64.9169805,14.3325786 64.9169805,24.2682158 C64.9169805,24.3885407 64.9132424,24.5022563 64.90139,24.7715915 C64.8858368,25.1250261 64.8804827,25.2861647 64.8804827,25.5100727 L64.8804827,27.3682911 L66.6046532,28.061264 C70.8807639,29.7799044 73.7220788,33.7802706 73.7220788,38.2213654 Z M76.4716157,38.2213654 C76.4716157,32.4999531 72.7944607,27.5857479 67.6300197,25.5100727 C67.6300197,25.102034 67.6665175,24.6851249 67.6665175,24.2682158 C67.6665175,12.7987799 57.9672227,3.47598253 45.959441,3.47598253 C37.3003341,3.47598253 29.8912773,8.32809498 26.3966114,15.3268458 C24.6903384,14.0761185 22.5460917,13.3132635 20.2649782,13.3132635 C14.6990611,13.3132635 10.2463275,17.6154108 10.2463275,22.9110435 C10.2463275,23.9133995 10.3923188,24.8447922 10.6751769,25.7495737 C6.35931004,28.2066763 3.47598253,32.7128429 3.47598253,37.8754196 C3.47598253,45.5660622 9.96346943,51.4914938 17.9473668,51.9438846 L61.3250218,51.9438846 C61.5805066,51.9438846 61.8268668,51.9793662 62.1097249,51.9793662 C70.0206266,51.9793662 76.4716157,45.8055631 76.4716157,38.2213654 Z M7.49679057,22.9110435 C7.49679057,16.0589238 13.2179076,10.5637266 20.2649782,10.5637266 C22.0376769,10.5637266 23.7760572,10.9276303 25.3772098,11.6066085 C29.8076032,4.91927038 37.4803166,0.72644559 45.959441,0.72644559 C59.2801392,0.72644559 70.1412646,10.9812043 70.410922,23.7805669 C75.7449453,26.6501639 79.2211527,32.1280049 79.2211527,38.2213654 C79.2211527,47.3492857 71.5153227,54.7289031 62.1097249,54.7289031 C61.9098894,54.7289031 61.7673051,54.7218099 61.5183172,54.7046732 C61.3926835,54.6971792 46.8171843,54.6919609 17.7918196,54.6890182 C8.26397021,54.1491426 0.72644559,46.9586558 0.72644559,37.8754196 C0.72644559,32.5170392 3.32989673,27.6132891 7.59410769,24.4769313 C7.52919971,23.9636772 7.49679057,23.4425261 7.49679057,22.9110435 Z" id="Shape" fill="#FFFFFF"></path>
                        <path d="M56.3978166,62.9065294 L66.3645653,62.9065294 L66.3645653,66.556311 L52.8181858,66.556311 L52.8181858,65.6345122 L52.7480349,65.6345122 L52.7480349,52.0881327 L56.3978166,52.0881327 L56.3978166,62.9065294 Z M27.1294124,65.6345122 L27.1294124,66.556311 L13.583033,66.556311 L13.583033,62.9065294 L23.5497817,62.9065294 L23.5497817,52.0881327 L27.1995633,52.0881327 L27.1995633,65.6345122 L27.1294124,65.6345122 Z M38.1489083,52.9912247 L41.79869,52.9912247 L41.79869,66.5376041 L38.1489083,66.5376041 L38.1489083,52.9912247 Z" id="Combined-Shape" fill="#FFFFFF"></path>
                        <ellipse id="Oval-3-Copy-5" stroke="#FFFFFF" stroke-width="3.6702864" cx="10.7755459" cy="64.7314202" rx="3.63952929" ry="3.58340857"></ellipse>
                        <ellipse id="Oval-3-Copy-6" stroke="#FFFFFF" stroke-width="3.6702864" cx="39.9737991" cy="71.0530639" rx="3.63952929" ry="3.58340857"></ellipse>
                        <ellipse id="Oval-3-Copy-7" stroke="#FFFFFF" stroke-width="3.6702864" cx="68.259607" cy="64.7314202" rx="3.63952929" ry="3.58340857"></ellipse>
                    </g>
                </g>
                <path d="M20.2499913,159.65883 L26.0062183,159.65883 L12.8252926,172.464349 L27.9249607,189.441048 L21.8350393,189.441048 L9.73862009,175.425886 L5.85942358,179.138236 L5.85942358,189.441048 L1.31283843,189.441048 L1.31283843,159.65883 L5.85942358,159.65883 L5.85942358,174.049397 L20.2499913,159.65883 Z M30.4276681,167.876052 L34.8491179,167.876052 L34.8491179,181.015266 C34.8491179,182.850585 35.224524,184.185362 36.017048,185.019598 C36.7678603,185.853834 38.019214,186.312664 39.7293974,186.312664 C40.8973275,186.312664 41.9401223,185.812122 42.9412052,184.894463 C43.9422882,183.935092 44.6513886,182.642026 45.0267948,181.056978 L45.0267948,167.876052 L49.4482445,167.876052 L49.4482445,189.441048 L45.0267948,189.441048 L45.0267948,186.521223 C43.191476,188.857083 40.9390393,190.025013 38.2277729,190.025013 C33.0137991,190.025013 30.4276681,187.105188 30.4276681,181.307249 L30.4276681,167.876052 Z M54.4953712,159.074865 L58.916821,159.074865 L58.916821,171.08786 C60.6687162,168.543441 62.8377293,167.292087 65.5072838,167.292087 C68.5939563,167.292087 71.0132402,168.418306 72.8068472,170.670742 C74.433607,172.756332 75.2678428,175.384175 75.2678428,178.554271 C75.2678428,181.849502 74.433607,184.560769 72.7651354,186.646358 C70.9298166,188.898795 68.468821,190.025013 65.2987249,190.025013 C62.3371878,190.025013 60.1264629,188.940507 58.6248384,186.854917 L58.6248384,189.441048 L54.4953712,189.441048 L54.4953712,159.074865 Z M64.5062009,170.879301 C62.8377293,170.879301 61.502952,171.504978 60.501869,172.839755 C59.3339389,174.257956 58.7916856,176.134987 58.7916856,178.470847 L58.7916856,178.846253 C58.7916856,181.015266 59.2505153,182.767162 60.1681747,184.143651 C61.2109694,185.645275 62.7125939,186.437799 64.6313362,186.437799 C66.8003493,186.437799 68.3853974,185.645275 69.4281921,184.101939 C70.2624279,182.767162 70.7212576,180.931843 70.7212576,178.554271 C70.7212576,176.176699 70.2624279,174.34138 69.3447686,173.090026 C68.3019738,171.588402 66.675214,170.879301 64.5062009,170.879301 Z M88.5739039,167.292087 C92.0776943,167.292087 94.7889607,168.460017 96.6242795,170.879301 C98.2927511,173.048314 99.1686987,176.051563 99.2104105,179.889048 L82.8593886,179.889048 C83.0262358,181.974638 83.5684891,183.601397 84.5695721,184.727616 C85.570655,185.812122 86.9471441,186.396087 88.6990393,186.396087 C90.2423755,186.396087 91.4937293,186.020681 92.4531004,185.311581 C93.2039127,184.727616 93.8295895,183.768245 94.4135546,182.516891 L98.8350044,182.516891 C98.3344629,184.519057 97.3750917,186.22924 95.8734672,187.564017 C93.9964367,189.190777 91.6188646,190.025013 88.7407511,190.025013 C85.570655,190.025013 83.0262358,189.02393 81.190917,187.063476 C79.1887511,184.977886 78.1876681,182.183197 78.1876681,178.637694 C78.1876681,175.425886 79.1053275,172.756332 81.0240699,170.587319 C82.8593886,168.376594 85.4038079,167.292087 88.5739039,167.292087 Z M88.6990393,170.921013 C87.0305677,170.921013 85.7375022,171.379843 84.7364192,172.380926 C83.8187598,173.340297 83.193083,174.716786 82.9428122,176.552105 L94.5804017,176.552105 C94.1632838,172.798044 92.2028297,170.921013 88.6990393,170.921013 Z M103.38159,159.65883 L124.779738,159.65883 L124.779738,163.538026 L107.928175,163.538026 L107.928175,172.214079 L123.778655,172.214079 L123.778655,176.093275 L107.928175,176.093275 L107.928175,185.561852 L125.488838,185.561852 L125.488838,189.441048 L103.38159,189.441048 L103.38159,159.65883 Z M145.218515,159.074865 L149.639965,159.074865 L149.639965,189.441048 L145.510498,189.441048 L145.510498,186.854917 C144.008873,188.940507 141.756437,190.025013 138.836611,190.025013 C135.666515,190.025013 133.163808,188.898795 131.370201,186.646358 C129.701729,184.560769 128.867493,181.849502 128.867493,178.554271 C128.867493,175.384175 129.660017,172.756332 131.328489,170.670742 C133.080384,168.418306 135.54138,167.292087 138.628052,167.292087 C141.255895,167.292087 143.46662,168.543441 145.218515,171.08786 L145.218515,159.074865 Z M139.629135,170.879301 C137.460122,170.879301 135.833362,171.588402 134.790568,173.090026 C133.872908,174.34138 133.414079,176.176699 133.414079,178.554271 C133.414079,180.931843 133.831197,182.767162 134.707144,184.101939 C135.708227,185.645275 137.334987,186.437799 139.504,186.437799 C141.422742,186.437799 142.882655,185.645275 143.967162,184.143651 C144.884821,182.767162 145.343651,181.015266 145.343651,178.846253 L145.343651,178.470847 C145.343651,176.134987 144.759686,174.257956 143.675179,172.839755 C142.590672,171.504978 141.255895,170.879301 139.629135,170.879301 Z M163.613415,167.292087 C166.449817,167.292087 168.61883,168.418306 170.203878,170.754166 L170.203878,167.876052 L174.625328,167.876052 L174.625328,188.022847 C174.625328,194.863581 171.246672,198.283948 164.572786,198.283948 C161.569537,198.283948 159.275389,197.699983 157.690341,196.573764 C156.105293,195.405834 155.145921,193.653939 154.728803,191.276367 L159.150253,191.276367 C159.400524,192.527721 159.901066,193.44538 160.735301,193.987633 C161.527825,194.488175 162.820891,194.780157 164.572786,194.780157 C168.326847,194.780157 170.203878,192.736279 170.203878,188.690236 L170.203878,185.353293 C168.61883,187.730865 166.449817,188.940507 163.613415,188.940507 C160.69359,188.940507 158.316017,187.939424 156.52241,185.978969 C154.687092,184.018515 153.811144,181.432384 153.811144,178.178865 C153.811144,174.925345 154.687092,172.339214 156.52241,170.337048 C158.316017,168.29317 160.69359,167.292087 163.613415,167.292087 Z M164.280803,170.879301 C162.403773,170.879301 160.94386,171.504978 159.942777,172.839755 C158.858271,174.091109 158.357729,175.884716 158.357729,178.178865 C158.357729,180.264454 158.774847,181.932926 159.609083,183.142568 C160.568454,184.560769 162.11179,185.311581 164.280803,185.311581 C166.157834,185.311581 167.617747,184.685904 168.702253,183.43455 C169.703336,182.141485 170.24559,180.38959 170.24559,178.178865 C170.24559,175.926428 169.703336,174.132821 168.702253,172.839755 C167.617747,171.504978 166.157834,170.879301 164.280803,170.879301 Z M188.765624,167.292087 C192.269415,167.292087 194.980681,168.460017 196.816,170.879301 C198.484472,173.048314 199.360419,176.051563 199.402131,179.889048 L183.051109,179.889048 C183.217956,181.974638 183.76021,183.601397 184.761293,184.727616 C185.762376,185.812122 187.138865,186.396087 188.89076,186.396087 C190.434096,186.396087 191.68545,186.020681 192.644821,185.311581 C193.395633,184.727616 194.02131,183.768245 194.605275,182.516891 L199.026725,182.516891 C198.526183,184.519057 197.566812,186.22924 196.065188,187.564017 C194.188157,189.190777 191.810585,190.025013 188.932472,190.025013 C185.762376,190.025013 183.217956,189.02393 181.382638,187.063476 C179.380472,184.977886 178.379389,182.183197 178.379389,178.637694 C178.379389,175.425886 179.297048,172.756332 181.21579,170.587319 C183.051109,168.376594 185.595528,167.292087 188.765624,167.292087 Z M188.89076,170.921013 C187.222288,170.921013 185.929223,171.379843 184.92814,172.380926 C184.01048,173.340297 183.384803,174.716786 183.134533,176.552105 L194.772122,176.552105 C194.355004,172.798044 192.39455,170.921013 188.89076,170.921013 Z" id="KubeEdge-Copy-5" fill="#646B76"></path>
            </g>
        </g>
    </g>
</svg>

<svg xmlns="http://www.w3.org/2000/svg" width="200" height="200"><g fill="none" fill-rule="evenodd"><g fill-rule="nonzero"><path fill="#1C77C8" d="m105.46 2.181 45.292 21.812a10.44 10.44 0 0 1 5.649 7.083l11.186 49.012a10.44 10.44 0 0 1-2.016 8.832l-31.343 39.304a10.44 10.44 0 0 1-8.163 3.93H75.794a10.44 10.44 0 0 1-8.163-3.93L36.288 88.92a10.44 10.44 0 0 1-2.016-8.832l11.186-49.012a10.44 10.44 0 0 1 5.649-7.083L96.4 2.181a10.44 10.44 0 0 1 9.06 0Z"/><g transform="translate(59.223 31.284)"><path fill="#FFF" d="M73.722 38.221c0 6.037-5.192 11.009-11.612 11.009a3.4 3.4 0 0 1-.214-.011 11.07 11.07 0 0 0-.295-.018c-.128-.005-.128-.005-.276-.007H17.947C11.37 48.817 6.226 43.91 6.226 37.875c0-4.029 2.22-7.693 5.81-9.736l1.924-1.096-.66-2.114a6.64 6.64 0 0 1-.304-2.018c0-3.764 3.21-6.848 7.269-6.848 1.624 0 3.211.532 4.506 1.481l2.63 1.928 1.456-2.917c3.124-6.258 9.699-10.33 17.102-10.33 10.503 0 18.958 8.108 18.958 18.043 0 .12-.004.234-.016.504-.015.353-.02.514-.02.738v1.858l1.724.693c4.276 1.719 7.117 5.72 7.117 10.16Zm2.75 0c0-5.721-3.678-10.635-8.842-12.71 0-.409.037-.826.037-1.243 0-11.47-9.7-20.792-21.708-20.792-8.659 0-16.068 4.852-19.562 11.85a10.405 10.405 0 0 0-6.132-2.013c-5.566 0-10.019 4.302-10.019 9.598 0 1.002.146 1.934.43 2.839-4.317 2.457-7.2 6.963-7.2 12.125 0 7.691 6.487 13.616 14.471 14.069h43.378c.256 0 .502.035.785.035 7.91 0 14.362-6.173 14.362-13.758ZM7.497 22.911c0-6.852 5.72-12.347 12.768-12.347 1.773 0 3.511.364 5.112 1.043C29.807 4.919 37.48.727 45.96.727 59.28.726 70.141 10.98 70.411 23.78c5.334 2.87 8.81 8.347 8.81 14.44 0 9.128-7.706 16.508-17.111 16.508a7.7 7.7 0 0 1-.592-.024c-.125-.008-14.7-.013-43.726-.016C8.264 54.149.726 46.959.726 37.875c0-5.358 2.604-10.262 6.868-13.398a12.46 12.46 0 0 1-.097-1.566Z"/><path fill="#FFF" d="M56.398 62.907h9.967v3.65H52.818v-.922h-.07V52.088h3.65v10.819Zm-29.269 2.728v.921H13.583v-3.65h9.967V52.089h3.65v13.547h-.07ZM38.15 52.99h3.65v13.547h-3.65V52.99Z"/><ellipse cx="10.776" cy="64.731" stroke="#FFF" stroke-width="3.67" rx="3.64" ry="3.583"/><ellipse cx="39.974" cy="71.053" stroke="#FFF" stroke-width="3.67" rx="3.64" ry="3.583"/><ellipse cx="68.26" cy="64.731" stroke="#FFF" stroke-width="3.67" rx="3.64" ry="3.583"/></g></g><path fill="#646B76" d="M20.25 159.659h5.756l-13.18 12.805 15.099 16.977h-6.09L9.739 175.426l-3.88 3.712v10.303H1.313v-29.782h4.546v14.39l14.391-14.39Zm10.178 8.217h4.421v13.14c0 1.835.376 3.17 1.168 4.004.75.834 2.002 1.293 3.712 1.293 1.168 0 2.211-.5 3.212-1.419 1.001-.959 1.71-2.252 2.086-3.837v-13.18h4.421v21.564h-4.421v-2.92c-1.836 2.336-4.088 3.504-6.8 3.504-5.213 0-7.8-2.92-7.8-8.718v-13.43Zm24.067-8.801h4.422v12.013c1.752-2.545 3.92-3.796 6.59-3.796 3.087 0 5.506 1.126 7.3 3.379 1.627 2.085 2.46 4.713 2.46 7.883 0 3.296-.833 6.007-2.502 8.092-1.835 2.253-4.296 3.379-7.466 3.379-2.962 0-5.173-1.084-6.674-3.17v2.586h-4.13v-30.366Zm10.011 11.804c-1.668 0-3.003.626-4.004 1.96-1.168 1.419-1.71 3.296-1.71 5.632v.375c0 2.17.459 3.921 1.376 5.298 1.043 1.501 2.545 2.294 4.463 2.294 2.17 0 3.754-.793 4.797-2.336.834-1.335 1.293-3.17 1.293-5.548 0-2.377-.459-4.213-1.376-5.464-1.043-1.502-2.67-2.21-4.839-2.21Zm24.068-3.587c3.504 0 6.215 1.168 8.05 3.587 1.669 2.17 2.545 5.173 2.586 9.01H82.86c.166 2.086.708 3.712 1.71 4.839 1 1.084 2.377 1.668 4.129 1.668 1.543 0 2.795-.375 3.754-1.084.75-.584 1.377-1.544 1.96-2.795h4.422c-.5 2.002-1.46 3.712-2.962 5.047-1.877 1.627-4.254 2.461-7.132 2.461-3.17 0-5.715-1.001-7.55-2.962-2.002-2.085-3.003-4.88-3.003-8.425 0-3.212.917-5.882 2.836-8.05 1.835-2.211 4.38-3.296 7.55-3.296Zm.125 3.629c-1.668 0-2.961.459-3.963 1.46-.917.96-1.543 2.336-1.793 4.171H94.58c-.417-3.754-2.377-5.631-5.881-5.631Zm14.683-11.262h21.398v3.879h-16.852v8.676h15.85v3.88h-15.85v9.468h17.56v3.879h-22.106v-29.782Zm41.837-.584h4.421v30.366h-4.13v-2.586c-1.501 2.086-3.754 3.17-6.673 3.17-3.17 0-5.673-1.126-7.467-3.379-1.668-2.085-2.503-4.796-2.503-8.092 0-3.17.793-5.798 2.461-7.883 1.752-2.253 4.213-3.379 7.3-3.379 2.628 0 4.839 1.251 6.59 3.796v-12.013Zm-5.59 11.804c-2.169 0-3.796.71-4.838 2.211-.918 1.251-1.377 3.087-1.377 5.464 0 2.378.417 4.213 1.293 5.548 1.001 1.543 2.628 2.336 4.797 2.336 1.919 0 3.379-.793 4.463-2.294.918-1.377 1.377-3.129 1.377-5.298v-.375c0-2.336-.584-4.213-1.669-5.631-1.084-1.335-2.42-1.96-4.046-1.96Zm23.984-3.587c2.837 0 5.006 1.126 6.59 3.462v-2.878h4.422v20.147c0 6.84-3.378 10.26-10.052 10.26-3.003 0-5.298-.583-6.883-1.71-1.585-1.167-2.544-2.92-2.961-5.297h4.421c.25 1.252.751 2.17 1.585 2.712.793.5 2.086.792 3.838.792 3.754 0 5.63-2.044 5.63-6.09v-3.337c-1.584 2.378-3.753 3.588-6.59 3.588-2.92 0-5.297-1.002-7.09-2.962-1.836-1.96-2.712-4.547-2.712-7.8 0-3.254.876-5.84 2.711-7.842 1.794-2.044 4.172-3.045 7.091-3.045Zm.668 3.587c-1.877 0-3.337.626-4.338 1.96-1.085 1.252-1.585 3.046-1.585 5.34 0 2.085.417 3.754 1.251 4.964.96 1.418 2.503 2.169 4.672 2.169 1.877 0 3.337-.626 4.421-1.877 1.001-1.294 1.544-3.045 1.544-5.256 0-2.253-.543-4.046-1.544-5.34-1.084-1.334-2.544-1.96-4.421-1.96Zm24.485-3.587c3.503 0 6.215 1.168 8.05 3.587 1.668 2.17 2.544 5.173 2.586 9.01h-16.35c.166 2.086.708 3.712 1.71 4.839 1 1.084 2.377 1.668 4.129 1.668 1.543 0 2.794-.375 3.754-1.084.75-.584 1.376-1.544 1.96-2.795h4.422c-.5 2.002-1.46 3.712-2.962 5.047-1.877 1.627-4.254 2.461-7.133 2.461-3.17 0-5.714-1.001-7.55-2.962-2.002-2.085-3.003-4.88-3.003-8.425 0-3.212.918-5.882 2.837-8.05 1.835-2.211 4.38-3.296 7.55-3.296Zm.125 3.629c-1.669 0-2.962.459-3.963 1.46-.918.96-1.543 2.336-1.793 4.171h11.637c-.417-3.754-2.377-5.631-5.881-5.631Z"/></g></svg>
